X:1
T: Miss Watt of Nether Cluny's Jig
C:William Marshall
R:Jig
Q:180
K:D
M:6/8
L:1/16
F4D2 G4E2|F4D2 G4E2|F4D2 C4D2|E2F2D2 C2B,2A,2|F4D2 G4E2|F4D2E6|c4e2 A4c2|f6f6|
F4D2 G4E2|F4D2 G4E2|F4D2 C4D2|E2F2D2 C2B,2A,2|F4D2 G4E2|F4D2E6|c4e2 A4c2|f6f6|
d4f2 A6|d4f2A6|B2c2d2 e2f2g2|B2e2d2 c2B2A2|d4f2A6|B4d2F6|F4A2 C4E2|D6D6|
d4f2 A6|d4f2A6|B2c2d2 e2f2g2|B2e2d2 c2B2A2|d4f2A4A2|B4d2E4E2|F4A2C4E2|D6D6||
